icons/svg/numeric-6-box-outline.svg

﻿<?xml version="1.0" encoding="utf-8"?>
<!DOCTYPE svg PUBLIC "-//W3C//DTD SVG 1.1//EN" "http://www.w3.org/Graphics/SVG/1.1/DTD/svg11.dtd">
<svg xmlns="http://www.w3.org/2000/svg" xmlns:xlink="http://www.w3.org/1999/xlink" version="1.1" baseProfile="full" width="24" height="24" viewBox="0 0 24.00 24.00" enable-background="new 0 0 24.00 24.00" xml:space="preserve">
	<path fill="#000000" fill-opacity="1" stroke-width="0.2" stroke-linejoin="round" d="M 11,13L 13,13L 13,15L 11,15M 11,17L 13,17C 14.1,17 15,16.11 15,15L 15,13C 15,11.89 14.1,11 13,11L 11,11L 11,9L 15,9L 15,7L 11,7C 9.9,7 9,7.89 9,9L 9,15C 9,16.11 9.9,17 11,17 Z M 19,19L 5.00001,19L 5.00001,5L 19,5M 19,3L 5.00001,3C 3.90001,3 3.00001,3.9 3.00001,5L 3.00001,19C 3.00001,20.1 3.90001,21 5.00001,21L 19,21C 20.1,21 21,20.1 21,19L 21,5C 21,3.9 20.1,3 19,3 Z "/>
</svg>

<svg xmlns="http://www.w3.org/2000/svg" version="1.1" baseProfile="full" width="24" height="24" viewBox="0 0 24.00 24.00" xml:space="preserve"><path fill="#000" fill-opacity="1" stroke-width=".2" stroke-linejoin="round" d="M11 13h2v2h-2m0 2h2c1.1 0 2-.89 2-2v-2c0-1.11-.9-2-2-2h-2V9h4V7h-4c-1.1 0-2 .89-2 2v6c0 1.11.9 2 2 2zm8 2H5V5h14m0-2H5c-1.1 0-2 .9-2 2v14c0 1.1.9 2 2 2h14c1.1 0 2-.9 2-2V5c0-1.1-.9-2-2-2z"/></svg>
